X: 1
T: Dirty Bastard's Daughter, The
M: 6/8
L: 1/8
R: jig
K: Dmaj
cBA GED|CDE G2 E|FDD ADD|FDD CDE|
cBA GED|CDE G2 E|FDD CDE|1 FDD D2 d:|2 FDD D2 e||
fdd add|fdd cde|fdd add|cde A2 g|
fdd add|fdd cde|{g}fed cBA|1 GFE D2 e:|2 GFE D2 d||
